icon/gr/cubes.svg

<svg xmlns="http://www.w3.org/2000/svg" width="24" height="24"><path fill="none" stroke="#000" stroke-width="2" d="m6.5 10.5 5.5 3 5.5-3v-6l-5.5-3-5.5 3v6Zm0-6 5.5 3 5.5-3m-5.5 3v6-6Zm-11 12 5.5 3 5.5-3v-6l-5.5-3-5.5 3v6Zm0-6 5.5 3 5.5-3m-5.5 3v6-6Zm5.5 3 5.5 3 5.5-3v-6l-5.5-3-5.5 3v6Zm0-6 5.5 3 5.5-3m-5.5 3v6-6Z"/></svg>

<svg xmlns="http://www.w3.org/2000/svg" viewBox="0 0 24 24" height="1em" width="1em">
  <path fill="none" stroke="#000" stroke-width="2" d="M6.5,10.5 L12,13.5 L17.5,10.5 L17.5,4.5 L12,1.5 L6.5,4.5 L6.5,10.5 Z M6.5,4.5 L12,7.5 L17.5,4.5 M12,7.5 L12,13.5 L12,7.5 Z M1,19.5 L6.5,22.5 L12,19.5 L12,13.5 L6.5,10.5 L1,13.5 L1,19.5 Z M1,13.5 L6.5,16.5 L12,13.5 M6.5,16.5 L6.5,22.5 L6.5,16.5 Z M12,19.5 L17.5,22.5 L23,19.5 L23,13.5 L17.5,10.5 L12,13.5 L12,19.5 Z M12,13.5 L17.5,16.5 L23,13.5 M17.5,16.5 L17.5,22.5 L17.5,16.5 Z"/>
</svg>
